outdoor-lamp.svg

<svg fill="currentColor" viewBox="0 0 24 24"><path d="M15 22h-2c-1.1 0-2-.9-2-2v-5h6v5c0 1.1-.9 2-2 2m-8-8h14l-6-4.29V6c0-1.61-1.06-4-4-4S7 4.39 7 6c0 .45-.19 1-1 1H5V3H3v9h2V9h1c2.2 0 3-1.79 3-3 0-.33.1-2 2-2 1.83 0 2 1.54 2 2v3.71z"/></svg>

<svg  viewBox="0 0 24 24" fill="currentColor"><path  d="M15 22H13C11.9 22 11 21.1 11 20V15H17V20C17 21.1 16.1 22 15 22M7 14H21L15 9.71V6C15 4.39 13.94 2 11 2S7 4.39 7 6C7 6.45 6.81 7 6 7H5V3H3V12H5V9H6C8.2 9 9 7.21 9 6C9 5.67 9.1 4 11 4C12.83 4 13 5.54 13 6V9.71L7 14Z"/></svg>
